resources/icons/20px/inbox-search.svg

<?xml version="1.0" encoding="UTF-8"?>
<svg width="20px" height="20px" viewBox="0 0 20 20" version="1.1" xmlns="http://www.w3.org/2000/svg" xmlns:xlink="http://www.w3.org/1999/xlink">
    <!-- Generator: Sketch 52.6 (67491) - http://www.bohemiancoding.com/sketch -->
    <title>Artboard</title>
    <desc>Created with Sketch.</desc>
    <g id="Artboard" stroke="none" stroke-width="1" fill="none" fill-rule="evenodd">
        <g id="inbox-search" fill="#000000" fill-rule="nonzero">
            <path d="M7.13634915,3 C7.04699488,3.42256396 7,3.86076861 7,4.31 C7,4.54616435 7.01298599,4.77927542 7.03828143,5.00866089 L4.65,5.00866089 L1.98,11.0046636 L5,11.0046636 C5.55,11.0046636 6,11.4543638 6,12.0039973 L6,13.0033311 L14,13.0033311 L14,12.0039973 C14,11.4543638 14.45,11.0046636 15,11.0046636 L16.0762364,11.0046636 L17.2157864,12.1442136 C17.7405738,12.6690009 18.4430715,12.95 19.19,12.95 C19.4717167,12.95 19.7436888,12.9080269 20,12.8299971 L20,17.0006662 C20,17.5502998 19.55,18 19,18 L1,18 C0.45,18 6.57252031e-14,17.5502998 6.57252031e-14,17.0006662 L6.57252031e-14,10.54497 L3.08,3.61958694 L3.09,3.59960027 C3.24,3.24983344 3.59,3 4,3 L7.13634915,3 Z M10.38,4.33 C10.38,5.95 11.69,7.26 13.31,7.26 C14.93,7.26 16.24,5.95 16.24,4.33 C16.24,2.71 14.93,1.4 13.31,1.4 C11.69,1.4 10.38,2.71 10.38,4.33 Z M16.85,6.76 L19.74,9.61 C19.87,9.76 19.96,9.96 19.97,10.17 C19.97,10.6 19.62,10.95 19.19,10.95 C18.96,10.95 18.77,10.87 18.63,10.73 L15.76,7.86 C15.59,7.96 15.43,8.06 15.25,8.15 C15.22,8.16 15.19,8.18 15.16,8.19 C14.98,8.26 14.81,8.34 14.61,8.4 C14.42,8.46 14.24,8.51 14.04,8.54 C13.99,8.55 13.94,8.56 13.9,8.56 C13.7,8.59 13.51,8.61 13.3,8.61 C10.93,8.61 9,6.69 9,4.31 C9,1.93 10.93,0.01 13.3,2.30926389e-14 C15.67,2.30926389e-14 17.6,1.93 17.6,4.3 C17.6,4.51 17.58,4.7 17.55,4.9 C17.54,4.95 17.54,4.99 17.53,5.04 C17.49,5.24 17.45,5.42 17.39,5.62 C17.34,5.81 17.26,5.98 17.18,6.16 C17.17,6.19 17.15,6.22 17.14,6.25 C17.06,6.43 16.96,6.59 16.85,6.76 Z" id="Shape"></path>
        </g>
    </g>
</svg>

<svg xmlns="http://www.w3.org/2000/svg" viewBox="0 0 20 20">
  <path d="M7.136 3a6.3 6.3 0 0 0-.098 2.009H4.65l-2.67 5.996H5c.55 0 1 .45 1 .999v1h8v-1c0-.55.45-1 1-1h1.076l1.14 1.14a2.77 2.77 0 0 0 1.974.806q.424-.002.81-.12V17c0 .55-.45 1-1 1H1c-.55 0-1-.45-1-1v-6.455L3.08 3.62l.01-.02c.15-.35.5-.6.91-.6zm3.244 1.33c0 1.62 1.31 2.93 2.93 2.93s2.93-1.31 2.93-2.93-1.31-2.93-2.93-2.93-2.93 1.31-2.93 2.93m6.47 2.43 2.89 2.85c.13.15.22.35.23.56 0 .43-.35.78-.78.78-.23 0-.42-.08-.56-.22l-2.87-2.87c-.17.1-.33.2-.51.29-.03.01-.06.03-.09.04-.18.07-.35.15-.55.21-.19.06-.37.11-.57.14-.05.01-.1.02-.14.02-.2.03-.39.05-.6.05A4.3 4.3 0 0 1 9 4.31C9 1.93 10.93.01 13.3 0c2.37 0 4.3 1.93 4.3 4.3 0 .21-.02.4-.05.6-.01.05-.01.09-.02.14-.04.2-.08.38-.14.58-.05.19-.13.36-.21.54-.01.03-.03.06-.04.09-.08.18-.18.34-.29.51"/>
</svg>
